X:1
T:The Cap and Bell
S:Mickey Soltys <mjslog@MIDAMER.NET>
L:1/8
M:4/4
D:The Smoky Chimney
C:Josephine Keegan
K:D
|d~F3 ADFA|dfec dAFA|B~G3 GBde|f2(3def eABc|
|d~F3 ADFA|dfec dcBA|GFGA (3Bcd eg|1fdec Addc:|2fdec Adde|]
|f~a3 afdf|bagf gfed|Be (3eee gfed|Be ba- agfe|
|f~a3 fade|f2ed dcBA|GFGA (3Bcd eg|1fdec Adde:|2fdec Addc|]
